X:1
T:Standin In The Need of Prayer
T:In the River of Jordan
T:Copyright 1881 by The Riverside Press
T:Rodeheaver's Plantation Melodies
T:Rodeheaver's Plantation Melodies
Z:Rodeheaver's Plantation Melodies
%%score [ 1 2 3 4 ]
L:1/8
Q:1/4=100
M:4/4
K:G
V:1 treble nm="Soprano" snm="S."
V:2 treble nm="Alto" snm="A."
V:3 bass nm="Tenor" snm="T."
V:4 bass nm="Bass" snm="B."
V:1
 BA | BA G2 E2 D2 | G2 G2 G4 | D D3 D3 E | G2 G2 G2 BA | BA G2 E2 D2 | G2 G2 G4 | D3 E G2 G2 | %8
w: In the|riv- er of Jor- dan|John bap- tized.|How I long to|be bap- tized. In the|riv- er of Jor- dan|John bap- tized.|To the dy- ing|
 G6 z2 || G2 (G4 B2) | A2 (A4 G2) | B2 B4 G2 | G2 G2 G(D G2) | G2 (G4 B2) | A2 A4 G2 | B3 G A2 A2 | %16
w: Lamb.||||||||
 G6 |] %17
w: |
V:2
 z2 | z8 | z8 | z8 | z8 | z8 | z8 | z8 | z8 || G2 G6 | F2 (F4 G2) | G2 G4 G2 | G2 G2 G(D G2) | %13
w: |||||||||Pray on,-|* on- *|pray- on, ye|mour- ning souls- * .|
 G2 G6 | F2 F4 G2 | G3 G F2 F2 | G6 |] %17
w: Pray- on,|pray on, un-|to the dy- ing|Lamb.|
V:3
 z2 | z8 | z8 | z8 | z8 | z8 | z8 | z8 | z8 || B,2 (B,4 D2) | D2 D6 | D2 D4 B,2 | B,2 B,2 B,4 | %13
 B,2 (B,4 D2) | D2 D4 B,2 | D3 B, C2 C2 | B,6 |] %17
V:4
 z2 | z8 | z8 | z8 | z8 | z8 | z8 | z8 | z8 || G,2 G,6 | D,2 D,6 | G,2 G,4 G,2 | G,2 G,2 G,4 | %13
 G,2 G,6 | D,2 D,4 D,2 | D,3 D, D,2 D,2 | G,6 |] %17

